assets/images/pear-logo-color-white.svg

<svg xmlns="http://www.w3.org/2000/svg" width="104" height="110" viewBox="0 0 104 110" xmlns:xlink="http://www.w3.org/1999/xlink">
  <defs>
    <path id="a" d="M32.483507,61.9505725 C29.4414529,64.523187 25.5139479,66.0785115 21.2274649,66.0785115 C11.600501,66.0785115 3.76968938,58.247729 3.76968938,48.6202099 C3.76968938,44.8734924 5.37204409,41.8932061 7.22711423,38.4431107 C9.74227455,33.7668511 12.5924248,28.4671183 12.5924248,19.758855 C12.5924248,14.9994656 16.466483,11.126374 21.2274649,11.126374 C25.9880261,11.126374 29.8622946,14.9994656 29.8622946,19.758855 C29.8622946,23.8613931 30.4988176,27.2016985 31.4307715,30.0833206 C33.0596393,30.3700763 34.6045491,31.0002672 35.9634469,31.9277099 C34.5306914,28.6608779 33.4442886,24.8895992 33.4442886,19.758855 C33.4442886,13.9823855 29.4107315,9.13293893 24.0125952,7.8694084 C24.6617435,5.75022901 25.8447295,3.66211832 27.9535671,2.23085878 C28.4991884,1.86013359 28.6412224,1.11805344 28.2704609,0.572461832 C27.9007515,0.0272900763 27.1581764,-0.114408397 26.6125551,0.255267176 C23.8152204,2.15339695 22.3416433,4.88009542 21.591493,7.55431298 C21.4700802,7.55074427 21.3492986,7.54486641 21.2274649,7.54486641 C14.4912625,7.54486641 9.01127255,13.0247137 9.01127255,19.758855 C9.01127255,27.5646565 6.50053106,32.2329389 4.07269539,36.7473473 C2.07495992,40.4621565 0.187274549,43.9712405 0.187274549,48.6202099 C0.187274549,60.2214313 9.62591182,69.6600191 21.2274649,69.6600191 C26.7409118,69.6600191 31.7638677,67.5250954 35.5190381,64.0424618 C35.2924148,63.9503053 35.0723146,63.8415649 34.867996,63.6988168 C34.257986,63.2718321 33.4356613,62.6792176 32.483507,61.9505725 Z"/>
    <path id="c" d="M36.5252705,40.821126 C33.8596593,35.8646183 31.1031463,30.739542 31.1031463,22.1566031 C31.1031463,15.724542 26.4724148,10.3553244 20.3693687,9.19843511 C20.902996,6.65122137 22.1013427,3.95769084 24.6541683,2.22561069 C25.1993687,1.8548855 25.3426653,1.11280534 24.971483,0.56721374 C24.6009319,0.0220419847 23.8587776,-0.120706107 23.3131563,0.24980916 C20.0181764,2.4865458 18.5614329,5.87051527 17.9598397,8.96562977 C17.9419539,8.96562977 17.9240681,8.96437023 17.9061824,8.96437023 C10.6296192,8.96437023 4.71006012,14.8825382 4.71006012,22.1566031 C4.71006012,29.7856489 2.5311523,34.6816985 0.174649299,39.1566412 C0.307214429,39.2559351 0.443777555,39.3491412 0.572134269,39.4538931 C1.90472946,38.3643893 3.4639479,37.5929198 5.12942886,37.1797901 C6.88370741,33.2334351 8.29121242,28.5355534 8.29121242,22.1566031 C8.29121242,16.8572901 12.6048397,12.5458779 17.9061824,12.5458779 C23.2083667,12.5458779 27.5203106,16.8572901 27.5203106,22.1566031 C27.5203106,31.641374 30.6290681,37.4186832 33.37001,42.5179389 C35.4123547,46.3125191 37.1733667,49.5902672 37.1733667,53.7329008 C37.1733667,64.3558779 28.5301202,72.9994847 17.9061824,72.9994847 C13.1603507,72.9994847 8.81263527,71.2713931 5.4509519,68.4153817 C4.26375752,69.3432443 3.24006012,70.0853244 2.50821643,70.5973282 C6.57312625,74.3117176 11.9790481,76.5809924 17.9061824,76.5809924 C30.5051303,76.5809924 40.7557816,66.3306298 40.7557816,53.7329008 C40.7557816,48.6878053 38.7001804,44.8669847 36.5252705,40.821126 Z"/>
    <path id="e" d="M9.83528056,2.98994275 C6.06222445,2.98994275 2.99365731,6.05902672 2.99365731,9.83198473 C2.99365731,15.6300763 11.5506313,23.3703817 17.1951703,27.4764885 C22.8401303,23.3699618 31.3964729,15.6294466 31.3964729,9.83198473 C31.3964729,6.05902672 28.3281162,2.98994275 24.5546393,2.98994275 C22.007495,2.98994275 19.6869739,4.39118321 18.4976754,6.6470229 C18.2426453,7.13089695 17.7416333,7.43255725 17.1951703,7.43255725 C16.6489178,7.43255725 16.1476954,7.13089695 15.8928758,6.6470229 C14.7035772,4.39118321 12.3826353,2.98994275 9.83528056,2.98994275 Z M17.1951703,30.7567557 C16.8997395,30.7567557 16.6047295,30.6677481 16.3509619,30.4909924 C13.6289579,28.5865649 0.0488176353,18.6412214 0.0488176353,9.83198473 C0.0488176353,4.4354771 4.43903808,0.0457633588 9.83528056,0.0457633588 C12.6982665,0.0457633588 15.3607214,1.28326336 17.1951703,3.37788168 C19.0294088,1.28326336 21.692495,0.0457633588 24.5546393,0.0457633588 C29.9510922,0.0457633588 34.3419439,4.4354771 34.3419439,9.83198473 C34.3419439,18.6399618 20.7613828,28.5865649 18.0389579,30.4909924 C17.7860321,30.6677481 17.4906012,30.7567557 17.1951703,30.7567557 Z"/>
  </defs>
  <g fill="none" fill-rule="evenodd">
    <g transform="translate(15.782 6.927)">
      <mask id="b" fill="white">
        <use xlink:href="#a"/>
      </mask>
      <polygon fill="#93C13D" points=".181 69.669 35.986 69.669 35.986 .042 .181 .042" mask="url(#b)"/>
    </g>
    <g transform="translate(51.974)">
      <mask id="d" fill="white">
        <use xlink:href="#c"/>
      </mask>
      <polygon fill="#93C13D" points=".173 76.597 40.775 76.597 40.775 .042 .173 .042" mask="url(#d)"/>
    </g>
    <g transform="translate(35.35 38.626)">
      <mask id="f" fill="white">
        <use xlink:href="#e"/>
      </mask>
      <polygon fill="#D98799" points=".029 30.766 34.345 30.766 34.345 .034 .029 .034" mask="url(#f)"/>
    </g>
    <path fill="#FFFFFF" d="M3.53 109.4L.24 109.4.24 84.41 3.46 84.41 3.46 87 3.565 87C4.10166935 86.1133289 4.88916147 85.3841695 5.9275 84.8125 6.96583852 84.2408305 8.17332645 83.955 9.55 83.955 10.7866728 83.955 11.9124949 84.1766644 12.9275 84.62 13.9425051 85.0633355 14.8174963 85.6816627 15.5525 86.475 16.2875037 87.2683373 16.8533313 88.195828 17.25 89.2575 17.6466686 90.319172 17.845 91.4566606 17.845 92.67 17.845 93.8833394 17.6466686 95.0266613 17.25 96.1 16.8533313 97.1733387 16.2933369 98.1066627 15.57 98.9 14.846663 99.6933373 13.9716718 100.317498 12.945 100.7725 11.9183282 101.227502 10.7633397 101.455 9.48 101.455 8.28999405 101.455 7.17000525 101.198336 6.12 100.685 5.06999475 100.171664 4.2416697 99.448338 3.635 98.515L3.53 98.515 3.53 109.4zM14.45 92.67C14.45 91.8999961 14.3333345 91.1533369 14.1 90.43 13.8666655 89.706663 13.516669 89.0650028 13.05 88.505 12.583331 87.9449972 12.0058368 87.5016683 11.3175 87.175 10.6291632 86.8483317 9.83000455 86.685 8.92 86.685 8.0799958 86.685 7.31583677 86.8483317 6.6275 87.175 5.93916322 87.5016683 5.35000245 87.9449972 4.86 88.505 4.36999755 89.0650028 3.99083467 89.706663 3.7225 90.43 3.45416532 91.1533369 3.32 91.9116627 3.32 92.705 3.32 93.4983373 3.45416532 94.256663 3.7225 94.98 3.99083467 95.7033369 4.36999755 96.3391639 4.86 96.8875 5.35000245 97.4358361 5.93916322 97.8733317 6.6275 98.2 7.31583677 98.5266683 8.0799958 98.69 8.92 98.69 9.83000455 98.69 10.6291632 98.520835 11.3175 98.1825 12.0058368 97.844165 12.583331 97.3950028 13.05 96.835 13.516669 96.2749972 13.8666655 95.6333369 14.1 94.91 14.3333345 94.186663 14.45 93.4400038 14.45 92.67L14.45 92.67zM44.8250442 91.5868643C44.4573451 90.2315948 43.8206195 89.1823252 42.9161947 88.4399426 42.0113274 87.69756 40.9268142 87.3259252 39.6644248 87.3259252 38.3715044 87.3259252 37.2502655 87.7073165 36.300708 88.4700991 35.3511504 89.2319948 34.6976106 90.2710643 34.339646 91.5868643L44.8250442 91.5868643zM34.2502655 94.2477339C34.4984956 95.6234035 35.1175221 96.7365339 36.1069027 97.5888991 37.0962832 98.4408209 38.2719469 98.8670035 39.6347788 98.8670035 40.609115 98.8670035 41.4962832 98.6332904 42.2967257 98.1645339 43.0971681 97.6957774 43.7361062 97.0332209 44.2135398 96.1764209L47.539646 96.1764209C46.7838938 98.0000035 45.7276991 99.3951861 44.370177 100.361969 43.0126549 101.328751 41.4343363 101.812143 39.6347788 101.812143 38.4210619 101.812143 37.3122124 101.597499 36.3082301 101.169099 35.3038053 100.741143 34.3940708 100.097656 33.5790265 99.2408557 32.8126549 98.4332817 32.2139823 97.4939948 31.7812389 96.4225513 31.3489381 95.3515513 31.1330088 94.2574904 31.1330088 93.1416991 31.1330088 91.9851078 31.3290265 90.9043513 31.7219469 89.8972122 32.1144248 88.89096 32.6936283 87.9742904 33.4595575 87.14676 34.2746018 86.250047 35.1945133 85.5746296 36.2188496 85.1213948 37.2427434 84.6677165 38.3617699 84.4410991 39.5750442 84.4410991 41.0166372 84.4410991 42.3564602 84.7772557 43.5945133 85.4500122 44.8325664 86.1227687 45.8542478 87.0624991 46.6595575 88.2683165 47.1369912 89.0155774 47.489646 89.8355687 47.7188496 90.72696 47.9476106 91.6192383 48.0617699 92.6383513 48.0617699 93.7842991L48.0617699 94.2477339 34.2502655 94.2477339zM66.2906195 93.0519835C66.2906195 94.7163574 66.839292 96.1110965 67.9388496 97.2375313 69.0370796 98.3635226 70.3817699 98.92674 71.9729204 98.92674 73.4246903 98.92674 74.7047788 98.3613052 75.8131858 97.2299922 76.9220354 96.0991226 77.4769027 94.776227 77.4769027 93.2613052 77.4769027 91.6466009 76.9273451 90.2638357 75.829115 89.1125661 74.7295575 87.9612965 73.4246903 87.3861052 71.9131858 87.3861052 70.3618584 87.3861052 69.0370796 87.9342443 67.9388496 89.0305226 66.839292 90.1268009 66.2906195 91.4674357 66.2906195 93.0519835L66.2906195 93.0519835zM77.3273451 101.378288L77.3273451 99.3604617C76.5720354 100.147636 75.7286726 100.743227 74.799469 101.146792 73.869823 101.550357 72.8777876 101.75214 71.8242478 101.75214 69.3578761 101.75214 67.309646 100.927714 65.6786726 99.2779748 64.0481416 97.6286791 63.2322124 95.5634009 63.2322124 93.0816965 63.2322124 91.9255487 63.4361947 90.8292704 63.8441593 89.7928617 64.2521239 88.756453 64.8335398 87.8446617 65.5888496 87.0570443 66.4140708 86.1900443 67.3162832 85.5496617 68.2963717 85.1358965 69.2755752 84.7230183 70.3919469 84.5159139 71.6446018 84.5159139 72.7689381 84.5159139 73.8025664 84.7150357 74.7468142 85.1141661 75.6915044 85.5124096 76.5521239 86.1150965 77.3273451 86.9226704L77.3273451 84.9341139 80.3109735 84.9341139 80.3109735 101.378288 77.3273451 101.378288zM100.165265 101.378465L97.2112832 101.378465 97.2112832 84.9342913 99.9865044 84.9342913 99.9865044 86.8328217C100.472788 86.1055174 101.03208 85.5649174 101.663938 85.2110217 102.295354 84.8571261 103.02854 84.6753 103.863938 84.6651L103.863938 87.7596913C102.541814 87.8594739 101.594469 88.2506217 101.022345 88.9331348 100.450664 89.6156478 100.165265 90.714587 100.165265 92.2295087L100.165265 101.378465z"/>
  </g>
</svg>

<svg xmlns="http://www.w3.org/2000/svg" xmlns:xlink="http://www.w3.org/1999/xlink" width="104" height="110" viewBox="0 0 104 110">
  <defs>
    <path id="a" d="M88.5 40.82c-2.666-4.955-5.423-10.08-5.423-18.663 0-6.432-4.63-11.802-10.734-12.96.533-2.546 1.73-5.24 4.284-6.97.36-.236.564-.648.536-1.078-.03-.43-.287-.81-.675-.997-.39-.187-.847-.15-1.2.097-3.296 2.237-4.753 5.62-5.354 8.716l-.054-.002c-7.276 0-13.196 5.92-13.196 13.193 0 7.63-2.18 12.525-4.535 17 .13.1.27.192.396.297 1.332-1.086 2.89-1.863 4.558-2.274 1.755-3.947 3.162-8.644 3.162-15.023 0-5.3 4.314-9.61 9.615-9.61 5.303 0 9.615 4.31 9.615 9.61 0 9.484 3.11 15.262 5.85 20.36 2.043 3.796 3.804 7.073 3.804 11.216C89.147 64.356 80.503 73 69.88 73c-4.564.003-8.98-1.623-12.454-4.585-.962.753-1.943 1.48-2.943 2.182 4.202 3.852 9.696 5.988 15.397 5.984 12.6 0 22.85-10.25 22.85-22.846 0-5.045-2.056-8.866-4.23-12.912v-.002z"/>
  </defs>
  <g fill="none" fill-rule="evenodd">
    <path fill="#93C13D" d="M48.266 68.877c-3.143 2.67-7.134 4.133-11.257 4.13-9.628 0-17.458-7.833-17.458-17.46 0-3.747 1.602-6.727 3.457-10.177 2.514-4.676 5.364-9.976 5.364-18.684 0-4.76 3.874-8.634 8.635-8.634 4.76 0 8.634 3.873 8.634 8.633 0 4.1.637 7.442 1.57 10.323 1.624.286 3.168.915 4.53 1.845-1.43-3.267-2.518-7.038-2.518-12.17 0-5.776-4.033-10.625-9.43-11.89.648-2.118 1.83-4.206 3.94-5.637.545-.37.688-1.112.318-1.658-.37-.545-1.113-.687-1.658-.317-2.8 1.9-4.272 4.626-5.023 7.3-.12-.003-.24-.01-.363-.01-6.736 0-12.216 5.48-12.216 12.215 0 7.805-2.51 12.473-4.937 16.987-2 3.717-3.888 7.225-3.888 11.875 0 11.6 9.44 21.04 21.04 21.04 5.513 0 10.536-2.135 14.29-5.618-.23-.09-.447-.206-.65-.344-.808-.567-1.603-1.15-2.385-1.75z"/>
    <use fill="#93C13D" xlink:href="#a"/>
    <path fill="#D98799" d="M45.185 41.616c-3.776.006-6.836 3.066-6.84 6.842 0 5.798 8.556 13.538 14.2 17.644 5.645-4.106 14.2-11.846 14.2-17.644-.004-3.776-3.064-6.836-6.84-6.842-2.542-.003-4.876 1.406-6.057 3.657-.254.485-.755.79-1.303.79-.547 0-1.048-.305-1.302-.79-1.182-2.25-3.516-3.66-6.058-3.657zm7.36 27.767c-.295 0-.59-.09-.844-.266-2.72-1.903-16.3-11.85-16.3-20.658 0-5.4 4.39-9.788 9.784-9.788 2.82-.004 5.503 1.21 7.36 3.332 1.857-2.12 4.54-3.336 7.36-3.332 5.396 0 9.787 4.39 9.787 9.786 0 8.808-13.58 18.755-16.302 20.66-.248.173-.543.265-.845.265h.002z"/>
    <path fill="#FFF" fill-rule="nonzero" d="M3.53 109.4H.24V84.41h3.22V87h.105c.537-.887 1.324-1.616 2.363-2.188 1.038-.57 2.245-.857 3.622-.857 1.237 0 2.362.222 3.377.665.995.43 1.89 1.06 2.626 1.855.735.793 1.3 1.72 1.697 2.782.402 1.093.604 2.25.595 3.413.008 1.17-.194 2.33-.595 3.43-.373 1.034-.943 1.985-1.68 2.8-.734.8-1.63 1.44-2.625 1.872-1.027.456-2.182.683-3.465.683-1.164.006-2.314-.258-3.36-.77-1.05-.513-1.878-1.237-2.485-2.17H3.53V109.4zm10.92-16.73c0-.76-.117-1.516-.35-2.24-.222-.703-.58-1.357-1.05-1.925-.473-.565-1.064-1.02-1.732-1.33-.69-.327-1.488-.49-2.398-.49-.84 0-1.604.163-2.292.49-.675.316-1.277.77-1.768 1.33-.49.56-.87 1.202-1.138 1.925-.27.728-.405 1.5-.402 2.275 0 .793.134 1.552.403 2.275.268.723.647 1.36 1.137 1.907.495.552 1.096 1 1.768 1.313.688.327 1.452.49 2.292.49.91 0 1.71-.17 2.398-.507.666-.322 1.257-.78 1.732-1.348.47-.568.828-1.222 1.05-1.925.233-.724.35-1.48.35-2.24zm30.375-1.083c-.368-1.355-1.004-2.405-1.91-3.147-.906-.742-1.99-1.114-3.25-1.114-1.293 0-2.415.38-3.364 1.144-.95.762-1.6 1.8-1.96 3.117h10.486zm-10.575 2.66c.248 1.376.868 2.49 1.857 3.342.99.85 2.165 1.276 3.528 1.276.934.01 1.854-.232 2.662-.702.8-.47 1.44-1.132 1.917-1.99h3.326c-.756 1.825-1.812 3.22-3.17 4.187-1.357.968-2.936 1.45-4.735 1.45-1.214 0-2.323-.214-3.327-.642-1.004-.43-1.914-1.072-2.73-1.93-.772-.817-1.382-1.773-1.797-2.817-.425-1.04-.645-2.154-.646-3.28 0-1.157.196-2.24.59-3.245.4-1.018.99-1.95 1.737-2.75.816-.897 1.736-1.572 2.76-2.026 1.024-.453 2.143-.68 3.356-.68 1.442 0 2.78.336 4.02 1.01 1.238.672 2.29 1.64 3.065 2.817.478.748.83 1.568 1.06 2.46.23.89.343 1.91.343 3.056v.464H34.25zm32.04-1.195c0 1.664.55 3.06 1.65 4.186 1.097 1.126 2.442 1.69 4.033 1.69 1.452 0 2.732-.567 3.84-1.698 1.11-1.13 1.664-2.454 1.664-3.97 0-1.613-.55-2.996-1.648-4.147-1.1-1.152-2.406-1.727-3.918-1.727-1.55 0-2.876.548-3.974 1.645-1.1 1.098-1.65 2.438-1.65 4.023h.002zm11.037 8.326V99.36c-.715.76-1.574 1.366-2.528 1.787-.94.406-1.954.612-2.977.605-2.466 0-4.514-.824-6.145-2.474-1.63-1.65-2.448-3.715-2.448-6.196 0-1.156.204-2.253.612-3.29.396-1.018.99-1.947 1.745-2.735.824-.867 1.726-1.507 2.706-1.92.98-.414 2.096-.62 3.35-.62 1.123 0 2.157.198 3.1.597.946.398 1.806 1 2.58 1.81v-1.99h2.985v16.444h-2.983.002zm22.838 0H97.21V84.934h2.777v1.9c.486-.728 1.045-1.27 1.677-1.623.63-.352 1.365-.534 2.2-.544v3.095c-1.322.1-2.27.49-2.842 1.174-.57.683-.857 1.782-.857 3.297v9.15-.002z"/>
  </g>
</svg>
